X: 55
T:Miss Wilten's Reel. BF11.55
M:4/4
Q:200
C:Browne A hand
S:MS11,c1800.,Browne Coll.,Lakes
R:Reel
O:England
A:Lakes
Z:vmp.Chris Partington
K:D
A|FAdA BAGF|GDed eB-Be|dcdA BAGF|GBAG FD-D:|!
f|abaf dfaf|gfge beef|abaf dfaf|(ef/g/) fe fd-df|!
abaf dfaf|gfge beef|fdec dBAG|Agfe fdd|]
